X: 17252
T: Herbert The Sherbert
R: jig
M: 6/8
K: Eminor
|:"Em"E2E e2e|"Am"cBA "G"B3|"Em"GBA GFE|"Bm"FAG FED|
"Em"E2E e2e|"Am"cBA "G"B3|"Em"GBA GFE|"B"AGF "Em"E3:|
|:"Em"EFG "B"F3|"Em"EFG "B"F3|"Em"e2f gfe|"G"ded B3|
"G"ded "D"A3|ded "G"G3|d2e dBG|"D"AGF "Em"E3:|
|:"Em"g2g "Bm"f2f|"Em"efe "Bm"B3|"Em"g2g "Bm"f2f|"Em"efe "Eb"_e3|"Em"g2g "Bm"f2f|
"Em"efe "Bm"B3|1 "G"cBc cBc|cBc cBc:|2 "Am"cde "G"dcB|"B"AGF "Em"E3||

